assets/img/braze_icons/divide-02.svg

<svg fill="none" height="24" viewBox="0 0 24 24" width="24" xmlns="http://www.w3.org/2000/svg"><g fill="#801ed7"><path clip-rule="evenodd" d="m3 12c0-.5523.44772-1 1-1h16c.5523 0 1 .4477 1 1s-.4477 1-1 1h-16c-.55228 0-1-.4477-1-1z" fill-rule="evenodd"/><path d="m14.5 5.5c0 1.38071-1.1193 2.5-2.5 2.5s-2.5-1.11929-2.5-2.5 1.1193-2.5 2.5-2.5 2.5 1.11929 2.5 2.5z"/><path d="m14.5 18.5c0 1.3807-1.1193 2.5-2.5 2.5s-2.5-1.1193-2.5-2.5 1.1193-2.5 2.5-2.5 2.5 1.1193 2.5 2.5z"/></g></svg>

<svg width="24" height="24" viewBox="0 0 24 24" fill="none" xmlns="http://www.w3.org/2000/svg">
<path fill-rule="evenodd" clip-rule="evenodd" d="M3 12C3 11.4477 3.44772 11 4 11H20C20.5523 11 21 11.4477 21 12C21 12.5523 20.5523 13 20 13H4C3.44772 13 3 12.5523 3 12Z" fill="#801ED7"/>
<path d="M14.5 5.5C14.5 6.88071 13.3807 8 12 8C10.6193 8 9.5 6.88071 9.5 5.5C9.5 4.11929 10.6193 3 12 3C13.3807 3 14.5 4.11929 14.5 5.5Z" fill="#801ED7"/>
<path d="M14.5 18.5C14.5 19.8807 13.3807 21 12 21C10.6193 21 9.5 19.8807 9.5 18.5C9.5 17.1193 10.6193 16 12 16C13.3807 16 14.5 17.1193 14.5 18.5Z" fill="#801ED7"/>
</svg>
